src/assets/outline/Information.svg

<svg width="24" height="24" viewBox="0 0 24 24"  xmlns="http://www.w3.org/2000/svg">
<path d="M12.0101 22.7403C11.3801 22.7403 10.7601 22.5303 10.2701 22.1103L8.69012 20.7603C8.53012 20.6203 8.13012 20.4803 7.92012 20.4803H6.17012C4.69012 20.4803 3.49012 19.2803 3.49012 17.8003V16.0903C3.49012 15.8803 3.35012 15.4803 3.22012 15.3303L1.86012 13.7303C1.04012 12.7603 1.04012 11.2403 1.86012 10.2603L3.22012 8.66031C3.35012 8.51031 3.49012 8.11031 3.49012 7.90031V6.20031C3.49012 4.72031 4.69012 3.52031 6.17012 3.52031H7.90012C8.11012 3.52031 8.50012 3.37031 8.67012 3.23031L10.2501 1.88031C11.2301 1.05031 12.7601 1.05031 13.7401 1.88031L15.3201 3.23031C15.4801 3.37031 15.8901 3.51031 16.1001 3.51031H17.8001C19.2801 3.51031 20.4801 4.71031 20.4801 6.19031V7.89031C20.4801 8.10031 20.6301 8.49031 20.7701 8.66031L22.1201 10.2403C22.9601 11.2303 22.9501 12.7603 22.1201 13.7303L20.7701 15.3103C20.6301 15.4803 20.4901 15.8703 20.4901 16.0803V17.7803C20.4901 19.2603 19.2901 20.4603 17.8101 20.4603H16.1101C15.9001 20.4603 15.5101 20.6103 15.3301 20.7503L13.7501 22.1003C13.2601 22.5303 12.6301 22.7403 12.0101 22.7403ZM6.17012 5.02031C5.52012 5.02031 4.99012 5.55031 4.99012 6.20031V7.90031C4.99012 8.47031 4.73012 9.19031 4.36012 9.63031L3.00012 11.2303C2.66012 11.6403 2.66012 12.3603 3.00012 12.7603L4.35012 14.3503C4.71012 14.7603 4.98012 15.5103 4.98012 16.0803V17.7903C4.98012 18.4403 5.51012 18.9703 6.16012 18.9703H7.90012C8.46012 18.9703 9.20012 19.2403 9.64012 19.6103L11.2301 20.9703C11.6401 21.3203 12.3601 21.3203 12.7701 20.9703L14.3501 19.6203C14.8001 19.2403 15.5301 18.9803 16.0901 18.9803H17.7901C18.4401 18.9803 18.9701 18.4503 18.9701 17.8003V16.1003C18.9701 15.5403 19.2401 14.8103 19.6101 14.3603L20.9701 12.7703C21.3201 12.3603 21.3201 11.6403 20.9701 11.2303L19.6201 9.65031C19.2401 9.20031 18.9801 8.47031 18.9801 7.91031V6.20031C18.9801 5.55031 18.4501 5.02031 17.8001 5.02031H16.1001C15.5301 5.02031 14.7901 4.75031 14.3501 4.38031L12.7601 3.02031C12.3501 2.67031 11.6401 2.67031 11.2201 3.02031L9.65012 4.38031C9.20012 4.75031 8.47012 5.02031 7.90012 5.02031H6.17012Z" />
<path d="M12 16.8701C11.45 16.8701 11 16.4201 11 15.8701C11 15.3201 11.44 14.8701 12 14.8701C12.55 14.8701 13 15.3201 13 15.8701C13 16.4201 12.56 16.8701 12 16.8701Z" />
<path d="M12 13.7199C11.59 13.7199 11.25 13.3799 11.25 12.9699V8.12988C11.25 7.71988 11.59 7.37988 12 7.37988C12.41 7.37988 12.75 7.71988 12.75 8.12988V12.9599C12.75 13.3799 12.42 13.7199 12 13.7199Z" />
</svg>

<?xml version="1.0" encoding="UTF-8"?>
<svg width="24" height="24" viewBox="0 0 24 24" xmlns="http://www.w3.org/2000/svg">
 <path d="m12.01 22.74c-0.63 0-1.25-0.21-1.74-0.63l-1.58-1.35c-0.16-0.14-0.56-0.28-0.77-0.28h-1.75c-1.48 0-2.68-1.2-2.68-2.68v-1.71c0-0.21-0.14-0.61-0.27-0.76l-1.36-1.6c-0.82-0.97-0.82-2.49 0-3.47l1.36-1.6c0.13-0.15 0.27-0.55 0.27-0.76v-1.7c0-1.48 1.2-2.68 2.68-2.68h1.73c0.21 0 0.6-0.15 0.77-0.29l1.58-1.35c0.98-0.83 2.51-0.83 3.49 0l1.58 1.35c0.16 0.14 0.57 0.28 0.78 0.28h1.7c1.48 0 2.68 1.2 2.68 2.68v1.7c0 0.21 0.15 0.6 0.29 0.77l1.35 1.58c0.84 0.99 0.83 2.52 0 3.49l-1.35 1.58c-0.14 0.17-0.28 0.56-0.28 0.77v1.7c0 1.48-1.2 2.68-2.68 2.68h-1.7c-0.21 0-0.6 0.15-0.78 0.29l-1.58 1.35c-0.49 0.43-1.12 0.64-1.74 0.64zm-5.84-17.72c-0.65 0-1.18 0.53-1.18 1.18v1.7c0 0.57-0.26 1.29-0.63 1.73l-1.36 1.6c-0.34 0.41-0.34 1.13 0 1.53l1.35 1.59c0.36 0.41 0.63 1.16 0.63 1.73v1.71c0 0.65 0.53 1.18 1.18 1.18h1.74c0.56 0 1.3 0.27 1.74 0.64l1.59 1.36c0.41 0.35 1.13 0.35 1.54 0l1.58-1.35c0.45-0.38 1.18-0.64 1.74-0.64h1.7c0.65 0 1.18-0.53 1.18-1.18v-1.7c0-0.56 0.27-1.29 0.64-1.74l1.36-1.59c0.35-0.41 0.35-1.13 0-1.54l-1.35-1.58c-0.38-0.45-0.64-1.18-0.64-1.74v-1.71c0-0.65-0.53-1.18-1.18-1.18h-1.7c-0.57 0-1.31-0.27-1.75-0.64l-1.59-1.36c-0.41-0.35-1.12-0.35-1.54 0l-1.57 1.36c-0.45 0.37-1.18 0.64-1.75 0.64h-1.73z"/>
 <path d="m12 16.87c-0.55 0-1-0.45-1-1s0.44-1 1-1c0.55 0 1 0.45 1 1s-0.44 1-1 1z"/>
 <path d="m12 13.72c-0.41 0-0.75-0.34-0.75-0.75v-4.84c0-0.41 0.34-0.75 0.75-0.75s0.75 0.34 0.75 0.75v4.83c0 0.42-0.33 0.76-0.75 0.76z"/>
</svg>
